icon-themes/sifr_svg/cmd/sc_dbindexdesign.svg

<svg viewBox="0 0 16 16" xmlns="http://www.w3.org/2000/svg"><path d="m8 0a7 4 0 0 0 -7 4v2.8671875l2 1.0664063v-1.1328126a7 4 0 0 0 5 1.1992188 7 4 0 0 0 5-1.1992188v1.1992188a5 2 0 0 1 -5 2 5 2 0 0 1 -1.2480469-.0664062l3.4765629 1.8554682a7 4 0 0 0 2.771484-.988281v1.199219a5 2 0 0 1 -.597656.947266l1.763672.939453a7 4 0 0 0 .833984-1.886719v-4-4a7 4 0 0 0 -7-4zm0 2a5 2 0 0 1 5 2 5 2 0 0 1 -5 2 5 2 0 0 1 -5-2 5 2 0 0 1 5-2zm-7 6v8h15zm2 3 5 3h-5z" fill="#555753"/></svg>

<svg xmlns="http://www.w3.org/2000/svg" viewBox="0 0 16 16">
  <path
     style="fill:#555753"
     d="M 8 0 A 7 4 0 0 0 1 4 L 1 6.8671875 L 3 7.9335938 L 3 6.8007812 A 7 4 0 0 0 8 8 A 7 4 0 0 0 13 6.8007812 L 13 8 A 5 2 0 0 1 8 10 A 5 2 0 0 1 6.7519531 9.9335938 L 10.228516 11.789062 A 7 4 0 0 0 13 10.800781 L 13 12 A 5 2 0 0 1 12.402344 12.947266 L 14.166016 13.886719 A 7 4 0 0 0 15 12 L 15 8 L 15 4 A 7 4 0 0 0 8 0 z M 8 2 A 5 2 0 0 1 13 4 A 5 2 0 0 1 8 6 A 5 2 0 0 1 3 4 A 5 2 0 0 1 8 2 z M 1 8 L 1 16 L 16 16 L 1 8 z M 3 11 L 8 14 L 3 14 L 3 11 z "
     />
</svg>
